svgs/sharp-regular/person-booth.svg

<svg xmlns="http://www.w3.org/2000/svg" viewBox="0 0 576 512"><!--! Font Awesome Pro 6.6.0 by @fontawesome - https://fontawesome.com License - https://fontawesome.com/license (Commercial License) Copyright 2024 Fonticons, Inc. --><path d="M216 0L192 0l0 24 0 184 48 0 0-160 7.6 0 78.9 200.8L273.1 416.7l-10 31.3 32.8 0 232 0 0 40 0 24 48 0 0-24 0-40 0-24 0-400 0-24L552 0 264 0 228.8 0 216 0zM528 400l-199.2 0 46-144.7 2.6-8.1-3.1-7.9L299.2 48 528 48l0 352zM192 320l0 168 0 24 48 0 0-24 0-168-48 0zM64 128a48 48 0 1 0 0-96 48 48 0 1 0 0 96zM0 160l0 24L0 288l0 8.5s0 0 0 0L0 488l0 24 48 0 0-24 0-132.4 56 68.9 0 63.5 0 24 48 0 0-24 0-72 0-8.5-5.4-6.6L120 368.1l0-105.7L133.3 279l7.2 9 11.5 0 64 0 24 0 0-48-24 0-52.5 0-56.8-71-7.2-9L88 160l-64 0L0 160zM72 309L48 279.5 48 264l0-24s0 0 0 0l0-32 24 0 0 101z"/></svg>

<svg xmlns="http://www.w3.org/2000/svg" viewBox="0 0 576 512"><!--! Font Awesome Pro 6.4.2 by @fontawesome - https://fontawesome.com License - https://fontawesome.com/license (Commercial License) Copyright 2023 Fonticons, Inc. --><path d="M216 0H192V24 208h48V48h7.6l78.9 200.8L273.1 416.7l-10 31.3H296 528v40 24h48V488 448 424 24 0H552 264 228.8 216zM528 400H328.8l46-144.7 2.6-8.1-3.1-7.9L299.2 48H528V400zM192 320V488v24h48V488 320H192zM64 128a48 48 0 1 0 0-96 48 48 0 1 0 0 96zM0 160v24V288v8.5l0 0V488v24H48V488 355.6l56 68.9V488v24h48V488 416v-8.5l-5.4-6.6L120 368.1V262.4L133.3 279l7.2 9H152h64 24V240H216 163.5l-56.8-71-7.2-9H88 24 0zM72 309L48 279.5V264 240h0V208H72V309z"/></svg>
